Numix/16/status/indicator-keyboard-Uz-1.svg

<?xml version="1.0" encoding="UTF-8" standalone="no"?>
<svg
   xmlns:dc="http://purl.org/dc/elements/1.1/"
   xmlns:cc="http://creativecommons.org/ns#"
   xmlns:rdf="http://www.w3.org/1999/02/22-rdf-syntax-ns#"
   xmlns:svg="http://www.w3.org/2000/svg"
   xmlns="http://www.w3.org/2000/svg"
   xmlns:sodipodi="http://sodipodi.sourceforge.net/DTD/sodipodi-0.dtd"
   xmlns:inkscape="http://www.inkscape.org/namespaces/inkscape"
   viewBox="0 0 16 16"
   id="svg2"
   version="1.1"
   inkscape:version="0.91 r13725"
   sodipodi:docname="indicator-keyboard-Uz-1.svg">
  <metadata
     id="metadata14">
    <rdf:RDF>
      <cc:Work
         rdf:about="">
        <dc:format>image/svg+xml</dc:format>
        <dc:type
           rdf:resource="http://purl.org/dc/dcmitype/StillImage" />
      </cc:Work>
    </rdf:RDF>
  </metadata>
  <defs
     id="defs12" />
  <sodipodi:namedview
     pagecolor="#ffffff"
     bordercolor="#666666"
     borderopacity="1"
     objecttolerance="10"
     gridtolerance="10"
     guidetolerance="10"
     inkscape:pageopacity="0"
     inkscape:pageshadow="2"
     inkscape:window-width="640"
     inkscape:window-height="480"
     id="namedview10"
     showgrid="false"
     inkscape:zoom="14.75"
     inkscape:cx="8"
     inkscape:cy="8"
     inkscape:window-x="65"
     inkscape:window-y="24"
     inkscape:window-maximized="0"
     inkscape:current-layer="svg2" />
  <path
     style="fill:#ececec;fill-opacity:1"
     d="M 1.5996094 0 C 0.71320937 2.9605947e-16 0 0.71320937 0 1.5996094 L 0 14.400391 C 2.9605947e-16 15.286791 0.71320937 16 1.5996094 16 L 14.400391 16 C 15.286791 16 16 15.286791 16 14.400391 L 16 1.5996094 C 16 0.71320937 15.286791 0 14.400391 0 L 1.5996094 0 z M 2.2871094 4.859375 L 2.9003906 4.859375 L 2.9003906 8.7011719 C 2.9003906 9.0431719 2.9395781 9.34175 3.0175781 9.59375 C 3.1015781 9.83975 3.215375 10.043078 3.359375 10.205078 C 3.503375 10.367078 3.6768594 10.486453 3.8808594 10.564453 C 4.0848594 10.642453 4.3124531 10.681641 4.5644531 10.681641 C 4.8164531 10.681641 5.0440469 10.642453 5.2480469 10.564453 C 5.4520469 10.486453 5.6274844 10.367078 5.7714844 10.205078 C 5.9154844 10.043078 6.0255156 9.83975 6.1035156 9.59375 C 6.1875156 9.34175 6.2304687 9.0431719 6.2304688 8.7011719 L 6.2304688 4.859375 L 6.8417969 4.859375 L 6.8417969 8.7832031 C 6.8417969 9.1252031 6.7988437 9.4460937 6.7148438 9.7460938 C 6.6368438 10.040094 6.508125 10.297531 6.328125 10.519531 C 6.148125 10.741531 5.9111875 10.916969 5.6171875 11.042969 C 5.3291875 11.168969 4.9784531 11.230469 4.5644531 11.230469 C 4.1504531 11.230469 3.7959531 11.168969 3.5019531 11.042969 C 3.2139531 10.916969 2.9807813 10.741531 2.8007812 10.519531 C 2.6207813 10.297531 2.4882969 10.040094 2.4042969 9.7460938 C 2.3262969 9.4460938 2.2871094 9.1252031 2.2871094 8.7832031 L 2.2871094 4.859375 z M 8.0292969 6.4433594 L 11.214844 6.4433594 L 11.214844 6.9199219 C 11.076844 7.0759219 10.895828 7.2923594 10.673828 7.5683594 C 10.451828 7.8443594 10.214891 8.1521406 9.9628906 8.4941406 C 9.7108906 8.8301406 9.4627969 9.1846406 9.2167969 9.5566406 C 8.9707969 9.9226408 8.7543594 10.271563 8.5683594 10.601562 L 11.294922 10.601562 L 11.294922 11.095703 L 7.8945312 11.095703 L 7.8945312 10.673828 C 8.0505312 10.379828 8.24075 10.055172 8.46875 9.7011719 C 8.70275 9.3471719 8.9434531 8.99825 9.1894531 8.65625 C 9.4354531 8.30825 9.6761563 7.9855469 9.9101562 7.6855469 C 10.144156 7.3795469 10.341906 7.1295 10.503906 6.9375 L 8.0292969 6.9375 L 8.0292969 6.4433594 z M 13.443359 8.8417969 L 13.712891 8.8417969 L 13.712891 12.896484 L 13.332031 12.896484 L 13.332031 9.421875 C 13.289131 9.468675 13.232309 9.5157063 13.162109 9.5664062 C 13.095809 9.6171063 13.019394 9.66805 12.933594 9.71875 C 12.847794 9.76555 12.759616 9.812575 12.666016 9.859375 C 12.572416 9.902275 12.478366 9.9375437 12.384766 9.9648438 L 12.273438 9.671875 C 12.507438 9.5899751 12.715138 9.4880813 12.898438 9.3632812 C 13.081737 9.2345813 13.263959 9.0601969 13.443359 8.8417969 z "
     id="path4" />
</svg>

<svg xmlns="http://www.w3.org/2000/svg" viewBox="0 0 16 16">
 <path d="m 1.6 0 c -0.886 0 -1.6 0.713 -1.6 1.6 l 0 12.801 c 0 0.886 0.713 1.6 1.6 1.6 l 12.801 0 c 0.886 0 1.6 -0.713 1.6 -1.6 l 0 -12.801 c 0 -0.886 -0.713 -1.6 -1.6 -1.6 l -12.801 0 z m 0.687 4.859 l 0.613 0 l 0 3.842 c 0 0.342 0.039 0.641 0.117 0.893 c 0.084 0.246 0.198 0.449 0.342 0.611 c 0.144 0.162 0.317 0.281 0.521 0.359 c 0.204 0.078 0.432 0.117 0.684 0.117 c 0.252 0 0.48 -0.039 0.684 -0.117 c 0.204 -0.078 0.379 -0.197 0.523 -0.359 c 0.144 -0.162 0.254 -0.365 0.332 -0.611 c 0.084 -0.252 0.127 -0.551 0.127 -0.893 l 0 -3.842 l 0.611 0 l 0 3.924 c 0 0.342 -0.043 0.663 -0.127 0.963 c -0.078 0.294 -0.207 0.551 -0.387 0.773 c -0.18 0.222 -0.417 0.397 -0.711 0.523 c -0.288 0.126 -0.639 0.188 -1.053 0.188 c -0.414 0 -0.768 -0.061 -1.062 -0.188 c -0.288 -0.126 -0.521 -0.301 -0.701 -0.523 c -0.18 -0.222 -0.312 -0.479 -0.396 -0.773 c -0.078 -0.3 -0.117 -0.621 -0.117 -0.963 l 0 -3.924 z m 5.742 1.584 l 3.186 0 l 0 0.477 c -0.138 0.156 -0.319 0.372 -0.541 0.648 c -0.222 0.276 -0.459 0.584 -0.711 0.926 c -0.252 0.336 -0.5 0.691 -0.746 1.063 c -0.246 0.366 -0.462 0.715 -0.648 1.045 l 2.727 0 l 0 0.494 l -3.4 0 l 0 -0.422 c 0.156 -0.294 0.346 -0.619 0.574 -0.973 c 0.234 -0.354 0.475 -0.703 0.721 -1.045 c 0.246 -0.348 0.487 -0.671 0.721 -0.971 c 0.234 -0.306 0.432 -0.556 0.594 -0.748 l -2.475 0 l 0 -0.494 z m 5.414 2.398 l 0.27 0 l 0 4.055 l -0.381 0 l 0 -3.475 c -0.043 0.047 -0.1 0.094 -0.17 0.145 c -0.066 0.051 -0.143 0.102 -0.229 0.152 c -0.086 0.047 -0.174 0.094 -0.268 0.141 c -0.094 0.043 -0.188 0.078 -0.281 0.105 l -0.111 -0.293 c 0.234 -0.082 0.442 -0.184 0.625 -0.309 c 0.183 -0.129 0.366 -0.303 0.545 -0.521 z" style="fill:#ececec;fill-opacity:1"/>
</svg>
